images/kiosk-redesign.svg

<svg xmlns="http://www.w3.org/2000/svg" width="638" height="404" viewBox="0 0 638 404"><path fill="#E7442D" d="M164.2 270.6c.6 1.6.1 2.4-1.6 2.4H142c-.9 0-1.6-.2-2.4-.7-.9-.5-1.4-1-1.6-1.7l-31.2-69L94 217.8v52.6c0 .7-.3 1.3-.9 1.8-.7.5-1.3.8-1.9.8H72.8c-1.8 0-2.6-.9-2.6-2.6V133c0-.7.2-1.3.8-1.9.5-.6 1.1-.9 1.8-.9h18.4c.6 0 1.2.3 1.9.9.6.6.9 1.2.9 1.9v46.6l37.6-47.2c1.2-1.5 2.7-2.2 4.6-2.2h25c1.6 0 1.9.7 1 2.2l-38.6 48.2 40.6 90zm22.7 2.4c-1.9 0-2.8-.9-2.8-2.6V133c0-1.7.9-2.6 2.8-2.6h18.2c1.8 0 2.8.9 2.8 2.6v137.4c0 1.7-1 2.6-2.8 2.6h-18.2zm207.9 0c-.9.1-1.5-.1-2-.7-.6-.6-.8-1.2-.8-1.9V252c0-1.6.9-2.5 2.8-2.8 2.9-.4 5.6-1.3 8.2-2.6 2.5-1.3 4.7-3 6.7-5.1 1.9-2.1 3.4-4.5 4.5-7.2 1-2.7 1.6-5.6 1.6-8.7V178c0-6.4 1.1-12.4 3.5-18 2.3-5.6 5.4-10.5 9.5-14.8 4-4.3 8.7-7.7 14.2-10.3 5.4-2.6 11.3-4.1 17.6-4.5 1.8 0 2.8.9 2.8 2.6v18.4c0 .7-.3 1.3-.8 1.9-.6.6-1.2.9-2 .9-6.1.7-11 3.2-15 7.7-4.1 4.5-6 9.8-6 16.1v47.6c0 6.3-1.2 12.2-3.5 17.8-2.4 5.6-5.5 10.5-9.5 14.8-4.1 4.3-8.8 7.7-14.2 10.3-5.5 2.6-11.4 4.1-17.6 4.5zm175.7-2.4c.6 1.6.1 2.4-1.6 2.4h-20.6c-.9 0-1.6-.2-2.4-.7-.9-.5-1.4-1-1.6-1.7l-31.2-69-12.8 16.2v52.6c0 .7-.3 1.3-.9 1.8-.7.5-1.3.8-1.9.8h-18.4c-1.8 0-2.6-.9-2.6-2.6V133c0-.7.2-1.3.8-1.9.5-.6 1.1-.9 1.8-.9h18.4c.6 0 1.2.3 1.9.9.6.6.9 1.2.9 1.9v46.6l37.6-47.2c1.2-1.5 2.7-2.2 4.6-2.2h25c1.6 0 1.9.7 1 2.2l-38.6 48.2 40.6 90zM307.2 125.5c10.6 0 20.5 2 29.9 6 9.3 4 17.4 9.5 24.4 16.5 6.9 6.9 12.4 15 16.4 24.4 4 9.3 6 19.2 6 29.8 0 10.7-2 20.6-6 29.9-4 9.3-9.5 17.5-16.4 24.4-7 7-15.1 12.5-24.4 16.5-9.4 4-19.3 6-29.9 6-10.6 0-20.6-2-29.9-6-9.3-4-17.5-9.5-24.4-16.5-7-6.9-12.4-15.1-16.5-24.4-4-9.3-6-19.2-6-29.9 0-10.6 2-20.5 6-29.8 4.1-9.4 9.5-17.5 16.5-24.4 6.9-7 15.1-12.5 24.4-16.5 9.3-4 19.3-6 29.9-6zm0 25.6c-7 0-13.7 1.3-19.9 4-6.2 2.6-11.7 6.3-16.2 10.9-4.6 4.7-8.3 10.1-11 16.4-2.7 6.2-4.1 12.8-4.1 19.8 0 7.1 1.4 13.7 4.1 19.9 2.7 6.3 6.4 11.7 11 16.3 4.5 4.6 10 8.2 16.2 10.9 6.2 2.8 12.9 4.1 19.9 4.1 7 0 13.6-1.3 19.9-4.1 6.2-2.7 11.6-6.3 16.2-10.9 4.6-4.6 8.2-10 11-16.3 2.7-6.2 4-12.8 4-19.9 0-7-1.3-13.6-4-19.8-2.8-6.3-6.4-11.7-11-16.4-4.6-4.6-10-8.3-16.2-10.9-6.3-2.7-12.9-4-19.9-4z"/></svg>

<svg xmlns="http://www.w3.org/2000/svg" width="638" height="404" viewBox="0 0 638 404"><path d="M164.2 270.6C164.8 272.2 164.3 273 162.6 273L142 273C141.1 273 140.4 272.8 139.6 272.3 138.7 271.8 138.2 271.3 138 270.6L106.8 201.6 94 217.8 94 270.4C94 271.1 93.7 271.7 93.1 272.2 92.4 272.7 91.8 273 91.2 273L72.8 273C71 273 70.2 272.1 70.2 270.4L70.2 133C70.2 132.3 70.4 131.7 71 131.1 71.5 130.5 72.1 130.2 72.8 130.2L91.2 130.2C91.8 130.2 92.4 130.5 93.1 131.1 93.7 131.7 94 132.3 94 133L94 179.6 131.6 132.4C132.8 130.9 134.3 130.2 136.2 130.2L161.2 130.2C162.8 130.2 163.1 130.9 162.2 132.4L123.6 180.6 164.2 270.6zM186.9 273C185 273 184.1 272.1 184.1 270.4L184.1 133C184.1 131.3 185 130.4 186.9 130.4L205.1 130.4C206.9 130.4 207.9 131.3 207.9 133L207.9 270.4C207.9 272.1 206.9 273 205.1 273L186.9 273zM394.8 273C393.9 273.1 393.3 272.9 392.8 272.3 392.2 271.7 392 271.1 392 270.4L392 252C392 250.4 392.9 249.5 394.8 249.2 397.7 248.8 400.4 247.9 403 246.6 405.5 245.3 407.7 243.6 409.7 241.5 411.6 239.4 413.1 237 414.2 234.3 415.2 231.6 415.8 228.7 415.8 225.6L415.8 178C415.8 171.6 416.9 165.6 419.3 160 421.6 154.4 424.7 149.5 428.8 145.2 432.8 140.9 437.5 137.5 443 134.9 448.4 132.3 454.3 130.8 460.6 130.4 462.4 130.4 463.4 131.3 463.4 133L463.4 151.4C463.4 152.1 463.1 152.7 462.6 153.3 462 153.9 461.4 154.2 460.6 154.2 454.5 154.9 449.6 157.4 445.6 161.9 441.5 166.4 439.6 171.7 439.6 178L439.6 225.6C439.6 231.9 438.4 237.8 436.1 243.4 433.7 249 430.6 253.9 426.6 258.2 422.5 262.5 417.8 265.9 412.4 268.5 406.9 271.1 401 272.6 394.8 273zM570.5 270.6C571.1 272.2 570.6 273 568.9 273L548.3 273C547.4 273 546.7 272.8 545.9 272.3 545 271.8 544.5 271.3 544.3 270.6L513.1 201.6 500.3 217.8 500.3 270.4C500.3 271.1 500 271.7 499.4 272.2 498.7 272.7 498.1 273 497.5 273L479.1 273C477.3 273 476.5 272.1 476.5 270.4L476.5 133C476.5 132.3 476.7 131.7 477.3 131.1 477.8 130.5 478.4 130.2 479.1 130.2L497.5 130.2C498.1 130.2 498.7 130.5 499.4 131.1 500 131.7 500.3 132.3 500.3 133L500.3 179.6 537.9 132.4C539.1 130.9 540.6 130.2 542.5 130.2L567.5 130.2C569.1 130.2 569.4 130.9 568.5 132.4L529.9 180.6 570.5 270.6zM307.2 125.5C317.8 125.5 327.7 127.5 337.1 131.5 346.4 135.5 354.5 141 361.5 148 368.4 154.9 373.9 163 377.9 172.4 381.9 181.7 383.9 191.6 383.9 202.2 383.9 212.9 381.9 222.8 377.9 232.1 373.9 241.4 368.4 249.6 361.5 256.5 354.5 263.5 346.4 269 337.1 273 327.7 277 317.8 279 307.2 279 296.6 279 286.6 277 277.3 273 268 269 259.8 263.5 252.9 256.5 245.9 249.6 240.5 241.4 236.4 232.1 232.4 222.8 230.4 212.9 230.4 202.2 230.4 191.6 232.4 181.7 236.4 172.4 240.5 163 245.9 154.9 252.9 148 259.8 141 268 135.5 277.3 131.5 286.6 127.5 296.6 125.5 307.2 125.5zM307.2 151.1C300.2 151.1 293.5 152.4 287.3 155.1 281.1 157.7 275.6 161.4 271.1 166 266.5 170.7 262.8 176.1 260.1 182.4 257.4 188.6 256 195.2 256 202.2 256 209.3 257.4 215.9 260.1 222.1 262.8 228.4 266.5 233.8 271.1 238.4 275.6 243 281.1 246.6 287.3 249.3 293.5 252.1 300.2 253.4 307.2 253.4 314.2 253.4 320.8 252.1 327.1 249.3 333.3 246.6 338.7 243 343.3 238.4 347.9 233.8 351.5 228.4 354.3 222.1 357 215.9 358.3 209.3 358.3 202.2 358.3 195.2 357 188.6 354.3 182.4 351.5 176.1 347.9 170.7 343.3 166 338.7 161.4 333.3 157.7 327.1 155.1 320.8 152.4 314.2 151.1 307.2 151.1z" fill="#E7442D"/></svg>
